lib/healthicons/icons/outline/places/letrina.svg

<svg fill="none" height="48" viewBox="0 0 48 48" width="48" xmlns="http://www.w3.org/2000/svg"><path clip-rule="evenodd" d="m14 6h20c1.1046 0 2 .89543 2 2v5.3992l-2.8905-3.0831-1.459 1.3678 4.3495 4.6395v2.0758l-2.8905-3.0831-1.459 1.3678 4.3495 4.6395v2.0758l-2.8905-3.0831-1.459 1.3678 4.3495 4.6395v2.0758l-2.8905-3.0831-1.459 1.3678 4.3495 4.6395v2.0758l-2.8905-3.0831-1.459 1.3678 4.3495 4.6395v3.6766c0 1.1046-.8954 2-2 2h-20c-1.1046 0-2-.8954-2-2v-3.6686l4.357-4.6475-1.4591-1.3678-2.8979 3.0911v-2.0758l4.357-4.6475-1.4591-1.3678-2.8979 3.0911v-2.0758l4.357-4.6475-1.4591-1.3678-2.8979 3.0911v-2.0758l4.357-4.6475-1.4591-1.3678-2.8979 3.0911v-2.0758l4.357-4.6475-1.4591-1.3678-2.8979 3.0911v-5.4072c0-1.10457.8954-2 2-2zm-4 2c0-2.20914 1.7909-4 4-4h20c2.2091 0 4 1.79086 4 4v32c0 2.2091-1.7909 4-4 4h-20c-2.2091 0-4-1.7909-4-4zm11 2h6c.9316 0 1.7145.6371 1.9368 1.4993-.5739-.3181-1.2342-.4993-1.9368-.4993h-6c-.7027 0-1.363.1812-1.9369.4993.2223-.8622 1.0052-1.4993 1.9369-1.4993zm10 2v23c0 2.2091-1.7909 4-4 4h-6c-2.2092 0-4-1.7909-4-4v-23c0-2.20914 1.7908-4 4-4h6c2.2091 0 4 1.79086 4 4zm-4 1c1.1045 0 2 .8954 2 2v20c0 1.1046-.8955 2-2 2h-6c-1.1046 0-2-.8954-2-2v-20c0-1.1046.8954-2 2-2zm-3 7c1.0355 0 1.875-.8954 1.875-2s-.8395-2-1.875-2-1.875.8954-1.875 2 .8395 2 1.875 2z" fill="#333" fill-rule="evenodd"/></svg>

<svg width="48" height="48" viewBox="0 0 48 48" fill="none" xmlns="http://www.w3.org/2000/svg">
<path fill-rule="evenodd" clip-rule="evenodd" d="M14 6H34C35.1046 6 36 6.89543 36 8V13.3992L33.1095 10.3161L31.6505 11.6839L36 16.3234V18.3992L33.1095 15.3161L31.6505 16.6839L36 21.3234V23.3992L33.1095 20.3161L31.6505 21.6839L36 26.3234V28.3992L33.1095 25.3161L31.6505 26.6839L36 31.3234V33.3992L33.1095 30.3161L31.6505 31.6839L36 36.3234V40C36 41.1046 35.1046 42 34 42H14C12.8954 42 12 41.1046 12 40V36.3314L16.357 31.6839L14.8979 30.3161L12 33.4072V31.3314L16.357 26.6839L14.8979 25.3161L12 28.4072V26.3314L16.357 21.6839L14.8979 20.3161L12 23.4072V21.3314L16.357 16.6839L14.8979 15.3161L12 18.4072V16.3314L16.357 11.6839L14.8979 10.3161L12 13.4072V8C12 6.89543 12.8954 6 14 6ZM10 8C10 5.79086 11.7909 4 14 4H34C36.2091 4 38 5.79086 38 8V40C38 42.2091 36.2091 44 34 44H14C11.7909 44 10 42.2091 10 40V8ZM21 10H27C27.9316 10 28.7145 10.6371 28.9368 11.4993C28.3629 11.1812 27.7026 11 27 11H21C20.2973 11 19.637 11.1812 19.0631 11.4993C19.2854 10.6371 20.0683 10 21 10ZM31 12V35C31 37.2091 29.2091 39 27 39H21C18.7908 39 17 37.2091 17 35V12C17 9.79086 18.7908 8 21 8H27C29.2091 8 31 9.79086 31 12ZM27 13C28.1045 13 29 13.8954 29 15V35C29 36.1046 28.1045 37 27 37H21C19.8954 37 19 36.1046 19 35V15C19 13.8954 19.8954 13 21 13H27ZM24 20C25.0355 20 25.875 19.1046 25.875 18C25.875 16.8954 25.0355 16 24 16C22.9645 16 22.125 16.8954 22.125 18C22.125 19.1046 22.9645 20 24 20Z" fill="#333333"/>
</svg>
